desktop/renderer-app/src/components/MainPageLayoutContainer/icons/logout.svg

<?xml version="1.0" encoding="UTF-8"?>
<svg width="22px" height="22px" viewBox="0 0 22 22" version="1.1" xmlns="http://www.w3.org/2000/svg" xmlns:xlink="http://www.w3.org/1999/xlink">
    <title>矩形备份 24</title>
    <g id="Flat-单窗口" stroke="none" stroke-width="1" fill="none" fill-rule="evenodd">
        <g id="首页（单窗口）" transform="translate(-36.000000, -239.000000)">
            <g id="编组-4" transform="translate(20.000000, 88.000000)">
                <g id="编组-11备份" transform="translate(0.000000, 142.000000)">
                    <g id="编组-4备份" transform="translate(16.000000, 9.000000)" stroke="#F45454" stroke-linecap="round" stroke-linejoin="round">
                        <path d="M13,7 L13,6 C13,5.44771525 12.5522847,5 12,5 L6,5 C5.44771525,5 5,5.44771525 5,6 L5,16 C5,16.5522847 5.44771525,17 6,17 L12,17 C12.5522847,17 13,16.5522847 13,16 L13,15 L13,15" id="路径-2"></path>
                        <line x1="8" y1="11" x2="17" y2="11" id="路径-3"></line>
                        <polyline id="路径-5" points="15 13 17 11 15 9"></polyline>
                    </g>
                </g>
            </g>
        </g>
    </g>
</svg>

<svg width="22" height="22" xmlns="http://www.w3.org/2000/svg"><path d="M13 7V6a1 1 0 0 0-1-1H6a1 1 0 0 0-1 1v10a1 1 0 0 0 1 1h6a1 1 0 0 0 1-1v-1h0m-5-4h9m-2 2 2-2-2-2" stroke="#F45454" stroke-linecap="round" stroke-linejoin="round" fill="none"/></svg>
